svgs/light/tty-answer.svg

<svg xmlns="http://www.w3.org/2000/svg" viewBox="0 0 640 512"><!--! Font Awesome Pro 6.0.0-alpha3 by @fontawesome - https://fontawesome.com License - https://fontawesome.com/license (Commercial License) --><path d="M344 139.1c0 6.625 5.375 12 12 12h24c6.625 0 12-5.375 12-12v-24c0-6.625-5.375-12-12-12h-24c-6.625 0-12 5.375-12 12V139.1zM308 55.98h24c6.625 0 12-5.375 12-12V19.98c0-6.625-5.375-12-12-12h-24c-6.625 0-12 5.375-12 12v24C296 50.61 301.4 55.98 308 55.98zM440 139.1c0 6.625 5.375 12 12 12h24c6.625 0 12-5.375 12-12v-24c0-6.625-5.375-12-12-12h-24c-6.625 0-12 5.375-12 12V139.1zM404 55.98h24c6.625 0 12-5.375 12-12V19.98c0-6.625-5.375-12-12-12h-24c-6.625 0-12 5.375-12 12v24C392 50.61 397.4 55.98 404 55.98zM500 55.98h24c6.625 0 12-5.375 12-12V19.98c0-6.625-5.375-12-12-12h-24c-6.625 0-12 5.375-12 12v24C488 50.61 493.4 55.98 500 55.98zM584 115.1c0-6.625-5.375-12-12-12h-24c-6.625 0-12 5.375-12 12v24c0 6.625 5.375 12 12 12h24c6.625 0 12-5.375 12-12V115.1zM620 199.1h-24c-6.625 0-12 5.375-12 12v24c0 6.625 5.375 12 12 12h24c6.625 0 12-5.375 12-12V211.1C632 205.4 626.6 199.1 620 199.1zM620 7.982h-24c-6.625 0-12 5.375-12 12v24c0 6.625 5.375 12 12 12h24c6.625 0 12-5.375 12-12V19.98C632 13.36 626.6 7.982 620 7.982zM528 208h-128c-8.844 0-16 7.157-16 16s7.156 16 16 16h128c8.844 0 16-7.157 16-16S536.9 208 528 208zM308 247.1h24c6.625 0 12-5.375 12-12V211.1c0-6.625-5.375-12-12-12h-24c-6.625 0-12 5.375-12 12v24C296 242.6 301.4 247.1 308 247.1zM484.6 330.6C484.6 330.6 484.6 330.6 484.6 330.6L382.9 286.1c-18.59-8.094-40.34-2.625-52.92 13l-33.08 40.41C244.2 311.7 200.3 267.9 171.7 215.2l40.41-33.09c15.53-12.66 20.89-34.41 13.03-52.88L181.4 27.3C172.6 7.264 150.9-3.706 129.6 1.138L35.16 22.95C14.45 27.64 0 45.8 0 67.08C0 312.4 199.6 512 444.9 512c21.27 0 39.42-14.47 44.16-35.13l21.8-94.44C515.8 361.1 504.7 339.3 484.6 330.6zM457.9 469.7c-1.391 6.063-6.719 10.28-12.97 10.28C217.2 479.1 32 294.8 32 67.08c0-6.25 4.219-11.56 10.3-12.94l94.47-21.81c1-.25 2-.3438 2.984-.3438c5.234 0 10.16 3.125 12.33 8.063l43.61 101.8c2.297 5.406 .7187 11.75-3.859 15.5L141.4 198.6c-5.75 4.719-7.5 12.75-4.219 19.44c33.31 67.81 89.02 123.5 156.9 156.8c6.641 3.219 14.7 1.5 19.42-4.25l41.36-50.53c3.672-4.563 10.02-6.125 15.47-3.75l101.7 43.6c5.797 2.531 9.109 9.063 7.672 15.22L457.9 469.7z"/></svg>

<svg xmlns="http://www.w3.org/2000/svg" viewBox="0 0 640 512"><!-- Font Awesome Pro 6.0.0-alpha2 by @fontawesome - https://fontawesome.com License - https://fontawesome.com/license (Commercial License) --><path d="M344 139.987C344 146.612 349.375 151.987 356 151.987H380C386.625 151.987 392 146.612 392 139.987V115.986C392 109.361 386.625 103.986 380 103.986H356C349.375 103.986 344 109.361 344 115.986V139.987ZM308 55.984H332C338.625 55.984 344 50.609 344 43.984V19.983C344 13.358 338.625 7.982 332 7.982H308C301.375 7.982 296 13.358 296 19.983V43.984C296 50.609 301.375 55.984 308 55.984ZM440 139.987C440 146.612 445.375 151.987 452 151.987H476C482.625 151.987 488 146.612 488 139.987V115.986C488 109.361 482.625 103.986 476 103.986H452C445.375 103.986 440 109.361 440 115.986V139.987ZM404 55.984H428C434.625 55.984 440 50.609 440 43.984V19.983C440 13.358 434.625 7.982 428 7.982H404C397.375 7.982 392 13.358 392 19.983V43.984C392 50.609 397.375 55.984 404 55.984ZM500 55.984H524C530.625 55.984 536 50.609 536 43.984V19.983C536 13.358 530.625 7.982 524 7.982H500C493.375 7.982 488 13.358 488 19.983V43.984C488 50.609 493.375 55.984 500 55.984ZM584 115.986C584 109.361 578.625 103.986 572 103.986H548C541.375 103.986 536 109.361 536 115.986V139.987C536 146.612 541.375 151.987 548 151.987H572C578.625 151.987 584 146.612 584 139.987V115.986ZM620 199.989H596C589.375 199.989 584 205.364 584 211.99V235.99C584 242.616 589.375 247.991 596 247.991H620C626.625 247.991 632 242.616 632 235.99V211.99C632 205.364 626.625 199.989 620 199.989ZM620 7.982H596C589.375 7.982 584 13.358 584 19.983V43.984C584 50.609 589.375 55.984 596 55.984H620C626.625 55.984 632 50.609 632 43.984V19.983C632 13.358 626.625 7.982 620 7.982ZM528.014 208.005H400.014C391.17 208.005 384.014 215.161 384.014 224.006S391.17 240.006 400.014 240.006H528.014C536.857 240.006 544.014 232.85 544.014 224.006S536.857 208.005 528.014 208.005ZM308 247.991H332C338.625 247.991 344 242.616 344 235.99V211.99C344 205.364 338.625 199.989 332 199.989H308C301.375 199.989 296 205.364 296 211.99V235.99C296 242.616 301.375 247.991 308 247.991ZM484.625 330.587C484.609 330.587 484.594 330.587 484.578 330.556L382.906 286.992C364.312 278.898 342.562 284.367 329.984 299.993L296.906 340.4C244.156 311.743 200.328 267.898 171.672 215.177L212.078 182.082C227.609 169.426 232.969 147.675 225.109 129.205L181.438 27.296C172.625 7.264 150.875 -3.706 129.562 1.138L35.156 22.952C14.453 27.639 0 45.796 0 67.078C0 312.399 199.578 512 444.891 512C466.156 512 484.312 497.531 489.047 476.874L510.844 382.433C515.781 361.088 504.766 339.275 484.625 330.587ZM457.859 469.717C456.469 475.78 451.141 479.999 444.891 479.999C217.219 479.999 32 294.774 32 67.078C32 60.828 36.219 55.515 42.297 54.14L136.766 32.327C137.766 32.077 138.766 31.983 139.75 31.983C144.984 31.983 149.906 35.108 152.078 40.046L195.687 141.8C197.984 147.206 196.406 153.55 191.828 157.3L141.375 198.645C135.625 203.364 133.875 211.396 137.156 218.083C170.469 285.898 226.172 341.619 294.031 374.933C300.672 378.152 308.734 376.433 313.453 370.683L354.813 320.15C358.484 315.587 364.828 314.024 370.281 316.399L471.984 359.995C477.781 362.526 481.094 369.057 479.656 375.214L457.859 469.717Z"/></svg>
